X:1
T:Mount of Olives, 87.87 D
T:Mount of Olives, 87.87 D
T:Arranged from Ludwig van Beethoven (1770-1827)
T:Public Domain Courtesy of the Cyber Hymnal™
C:Arranged from Ludwig van Beethoven (1770-1827)
Z:Public Domain
Z:Courtesy of the Cyber Hymnal™
%%score ( 1 2 ) ( 3 4 )
L:1/8
Q:1/4=110
M:4/4
K:Bb
V:1 treble 
V:2 treble 
V:3 bass 
V:4 bass 
V:1
 [DB]2 (AG) [DF]2 D2 | [EG]2 (BG) [DF]2 D2 | [Fd]2 (cB) [EG]2 [Gc]2 | [FB]2 [FA]2 [FB]4 | %4
 [DB]2 (AG) [DF]2 D2 | [EG]2 (BG) [DF]2 D2 | [Fd]2 (cB) [EG]2 [Gc]2 | [FB]2 [FA]2 [FB]4 | %8
 [Fd]2 (de) [Ff]2 [Fd]2 | [Ge]2 [Fc]2 [Fd]2 [DB]2 | [Fd]2 (de) [Ff]2 [Fd]2 | [Ge]2 [Fd]2 [Fc]4 | %12
 [DB]2 (AG) [DF]2 D2 | [EG]2 (BG) [DF]2 D2 | [Fd]2 (cB) [EG]2 [Gc]2 | [FB]2 [FA]2 [FB]4 |] %16
V:2
 x2 E2 x D2 x | x2 E2 x D2 x | x2 F2 x4 | x8 | x2 E2 x D2 x | x2 E2 x D2 x | x2 F2 x4 | x8 | %8
 x2 F2 x4 | x8 | x2 F2 x4 | x8 | x2 E2 x D2 x | x2 E2 x D2 x | x2 F2 x4 | x8 |] %16
V:3
 [B,,F,]2 [B,,B,]2 [B,,B,]2 [B,,B,]2 | [E,B,]2 [G,B,]2 B,2 [B,,B,]2 | %2
 [B,,B,]2 ([C,A,][D,B,]) [E,B,]2 [C,E]2 | [F,D]2 [F,C]2 [B,,D]4 | %4
 [B,,F,]2 [B,,B,]2 [B,,B,]2 [B,,B,]2 | [E,B,]2 [G,B,]2 B,2 [B,,B,]2 | %6
 [B,,B,]2 ([C,A,][D,B,]) [E,B,]2 [C,E]2 | [F,D]2 [F,C]2 [B,,D]4 | [B,,B,]2 B,2 [A,C]2 B,2 | %9
 [E,B,]2 [F,A,]2 B,2 B,2 | [B,,B,]2 B,2 [A,C]2 B,2 | [E,B,]2 [B,,B,]2 [F,A,]4 | %12
 [B,,F,]2 [B,,B,]2 [B,,B,]2 [B,,B,]2 | [E,B,]2 [G,B,]2 B,2 [B,,B,]2 | %14
 [B,,B,]2 ([C,A,][D,B,]) [E,B,]2 [C,E]2 | [F,D]2 [F,C]2 [B,,D]4 |] %16
V:4
 x8 | x4 B,2 x2 | x8 | x8 | x8 | x4 B,2 x2 | x8 | x8 | x2 B,2 B,2 x2 | x4 B,2 B,2 | x2 B,2 B,2 x2 | %11
 x8 | x8 | x4 B,2 x2 | x8 | x8 |] %16

